austria/municipalities/20627.svg

<?xml version="1.0" encoding="UTF-8" standalone="no"?>
<!-- Created with Inkscape (http://www.inkscape.org/) -->
<svg
   xmlns:dc="http://purl.org/dc/elements/1.1/"
   xmlns:cc="http://web.resource.org/cc/"
   xmlns:rdf="http://www.w3.org/1999/02/22-rdf-syntax-ns#"
   xmlns:svg="http://www.w3.org/2000/svg"
   xmlns="http://www.w3.org/2000/svg"
   xmlns:sodipodi="http://inkscape.sourceforge.net/DTD/sodipodi-0.dtd"
   xmlns:inkscape="http://www.inkscape.org/namespaces/inkscape"
   width="690.09003"
   height="780.35999"
   id="svg1332"
   sodipodi:version="0.32"
   inkscape:version="0.43"
   sodipodi:docname="wappen_obervellach.svg"
   version="1.0"
   sodipodi:docbase="C:\Dokumente und Einstellungen\Administrator\Desktop\svg">
  <defs
     id="defs3" />
  <sodipodi:namedview
     inkscape:document-units="mm"
     id="base"
     pagecolor="#ffffff"
     bordercolor="#666666"
     borderopacity="1.0"
     inkscape:pageopacity="0.0"
     inkscape:pageshadow="2"
     inkscape:zoom="0.70710678"
     inkscape:cx="210.5345"
     inkscape:cy="297.93714"
     inkscape:current-layer="layer1"
     inkscape:window-width="1280"
     inkscape:window-height="977"
     inkscape:window-x="-4"
     inkscape:window-y="-4"
     showgrid="false"
     showguides="true"
     inkscape:guide-bbox="true" />
  <metadata
     id="metadata4">
    <rdf:RDF>
      <cc:Work
         rdf:about="">
        <dc:format>image/svg+xml</dc:format>
        <dc:type
           rdf:resource="http://purl.org/dc/dcmitype/StillImage" />
        <dc:title>Wappen Gemeinde Obervellach</dc:title>
        <dc:date>30. Jan 2006</dc:date>
        <dc:creator>
          <cc:Agent>
            <dc:title>Michael Glanznig</dc:title>
          </cc:Agent>
        </dc:creator>
        <dc:rights>
          <cc:Agent>
            <dc:title />
          </cc:Agent>
        </dc:rights>
        <dc:description>Obervellach, coat of arms</dc:description>
        <cc:license
           rdf:resource="http://creativecommons.org/licenses/by-sa/2.0/" />
      </cc:Work>
      <cc:License
         rdf:about="http://creativecommons.org/licenses/by-sa/2.0/at/">
        <cc:permits
           rdf:resource="http://web.resource.org/cc/Reproduction" />
        <cc:permits
           rdf:resource="http://web.resource.org/cc/Distribution" />
        <cc:requires
           rdf:resource="http://web.resource.org/cc/Notice" />
        <cc:requires
           rdf:resource="http://web.resource.org/cc/Attribution" />
        <cc:permits
           rdf:resource="http://web.resource.org/cc/DerivativeWorks" />
        <cc:requires
           rdf:resource="http://web.resource.org/cc/ShareAlike" />
      </cc:License>
    </rdf:RDF>
  </metadata>
  <g
     inkscape:label="Layer 1"
     inkscape:groupmode="layer"
     id="layer1">
    <g
       id="g1343">
      <path
         sodipodi:nodetypes="ccccc"
         id="path1345"
         d="M 18.404068,21.18926 L 671.26121,22.39916 L 620.73536,561.21689 C 583.95443,830.2529 93.35863,833.3872 66.397601,561.27194 L 18.404068,21.18926 z "
         style="fill:#e10403;fill-opacity:1;fill-rule:evenodd;stroke:#000000;stroke-width:12.81259823;stroke-linecap:butt;stroke-linejoin:miter;stroke-miterlimit:4;stroke-dasharray:none;stroke-opacity:1" />
      <path
         sodipodi:nodetypes="cssssssssssssssssssssssssssssssssssssssssssssssssssssssssssssssssssssssssssssc"
         id="path9248"
         d="M 88.302115,553.49104 C 88.353555,548.99732 93.712315,535.51863 93.712315,525.07805 C 93.712315,516.10705 99.212315,508.63605 99.212315,499.66505 C 99.212315,491.84248 105.20698,476.46007 107.91437,470.47761 C 110.58987,464.56562 114.76222,445.40903 118.11641,441.70318 C 123.19173,436.09576 124.84092,426.14903 124.84092,415.56192 C 124.84092,404.12386 127.22088,401.6799 129.40827,392.01305 C 131.22685,383.97609 135.47086,378.58662 141.58787,371.82831 C 146.66311,366.22098 149.61957,362.95457 153.76747,358.37181 C 158.41898,353.23264 160.50394,349.24703 164.42462,344.9153 C 167.48795,341.53083 165.94707,327.63539 165.94707,321.36643 C 165.94707,311.03789 169.24257,305.67414 172.03687,299.49962 C 173.88284,295.42064 183.57426,291.44408 187.26138,289.40725 C 192.36443,286.58822 194.30139,278.89727 196.39608,274.26868 C 200.56495,265.05681 202.69515,260.69657 211.62058,255.766 C 221.13008,250.51276 222.71754,266.12 223.80018,270.90456 C 226.10103,281.07282 225.45423,285.23844 234.45733,287.72519 C 240.87193,289.49695 249.35704,289.31754 255.77164,291.08931 C 263.2461,293.15383 263.4609,301.52204 264.90634,307.90994 C 266.61146,315.44546 265.15873,327.52802 266.42879,333.14087 C 268.67934,343.08687 272.3811,347.97563 275.56349,355.00767 C 278.73366,362.01273 278.60839,367.95897 278.60839,376.87449 C 278.60839,386.7537 277.23322,391.19944 275.56349,400.42336 C 273.84765,409.902 279.17983,415.14255 281.65329,420.60811 C 285.15639,428.34884 285.90352,432.31277 287.74309,442.47493 C 289.35179,451.36171 288.96184,459.63543 290.78799,467.70586 C 292.38466,474.7621 295.7687,480.39369 298.40024,486.20854 C 301.48085,493.0157 303.41312,497.28538 306.01249,503.02918 C 309.45047,510.62599 303.47222,524.33846 312.1023,514.80361 C 316.34857,510.11217 318.36125,503.96369 319.71455,497.98299 C 321.42388,490.42881 328.71169,488.04259 333.4166,482.84442 C 337.10496,478.76938 346.63911,478.06314 350.16355,476.11617 C 352.12658,475.03176 357.23899,463.25276 359.29825,460.97761 C 361.72798,458.29315 364.58388,446.02884 365.38805,442.47493 C 367.36692,433.72962 366.9278,427.2599 368.43295,420.60811 C 369.39534,416.35499 380.12428,409.94445 382.13501,408.83367 C 388.7344,405.18805 390.79444,400.84169 392.79216,392.01305 C 394.70235,383.57124 391.26971,375.1896 391.26971,366.78212 C 391.26971,355.74727 391.14191,351.78475 395.83706,346.59736 C 400.44421,341.50722 406.40504,341.57582 412.58401,339.86912 C 422.09588,337.24184 420.19626,335.23469 420.19626,323.04849 C 420.19626,314.63818 420.19626,306.22787 420.19626,297.81756 C 420.19626,287.49225 418.89936,280.74773 424.76361,274.26868 C 430.43552,268.00213 433.16201,269.11238 435.42077,259.13012 C 437.18068,251.35244 446.12993,252.40187 453.69017,252.40187 C 460.86267,252.40187 465.93238,264.45299 467.39222,270.90456 C 468.88797,277.5148 475.7795,283.53528 479.57182,287.72519 C 486.08817,294.9247 488.17905,298.91684 493.27387,304.54581 C 498.22677,310.01797 500.44889,312.7059 502.40858,321.36643 C 503.71756,327.15131 509.49473,333.66042 511.54328,338.18705 C 515.00919,345.84561 517.61587,351.56752 519.15553,358.37181 C 521.19358,367.37868 519.59408,374.47942 522.20043,380.23862 C 525.48792,387.50291 529.13994,391.26978 532.85758,395.37718 C 537.6639,400.68739 542.82491,403.02535 546.55963,407.15161 C 551.63241,412.75622 552.40535,421.21146 554.17188,429.01843 C 556.02655,437.21484 555.69433,444.68043 555.69433,454.24936 C 555.69433,463.84753 557.37476,470.08606 558.73924,476.11617 C 560.1308,482.266 566.76253,489.05682 569.39639,492.93679 C 572.59182,497.64405 574.77273,504.81678 577.00864,509.75742 C 580.11477,516.62098 583.66726,521.10672 586.14334,526.57805 C 588.94158,532.76125 590.76696,538.47682 593.75559,545.08073 C 596.90443,552.03866 600.5279,555.92717 604.41274,560.21929 C 608.76598,565.02892 611.85323,571.23467 613.54744,578.72198 C 615.42979,587.04072 606.58973,590.13484 602.89029,592.17848 C 596.25096,595.84618 586.31228,595.49595 580.05354,597.22467 C 570.29525,599.92 556.61208,597.22467 546.55963,597.22467 C 531.33513,597.22467 516.11063,597.22467 500.88613,597.22467 C 477.03441,597.22467 453.18268,597.22467 429.33096,597.22467 C 406.49421,597.22467 383.65746,597.22467 360.8207,597.22467 C 347.11865,597.22467 333.4166,597.22467 319.71455,597.22467 C 306.01249,597.22467 292.31044,597.22467 278.60839,597.22467 C 263.38389,597.22467 248.15939,597.22467 232.93488,597.22467 C 219.74031,597.22467 206.54575,597.22467 193.35118,597.22467 C 178.63416,597.22467 163.91714,597.22467 149.20012,597.22467 C 140.79391,597.22467 132.45436,597.64551 124.84092,595.5426 C 115.74686,593.03074 102.17543,589.00357 97.436815,583.76817 C 92.280055,578.07078 89.897675,573.99891 88.302115,566.94755 C 86.428545,558.66756 82.266595,570.16173 88.302115,553.49104 z "
         style="fill:#ffffff;fill-opacity:1;fill-rule:evenodd;stroke:#000000;stroke-width:6.56945753;stroke-linecap:butt;stroke-linejoin:miter;stroke-miterlimit:4;stroke-dasharray:none;stroke-opacity:1" />
      <path
         sodipodi:nodetypes="cssssssssssssssssssssssssssssssssssssssssssssssssssssssssssc"
         id="path10123"
         d="M 92.108239,568.3466 C 98.498139,568.94383 86.178003,566.11034 89.43272,558.61104 C 91.721031,553.33847 92.345873,548.60217 93.63782,544.08369 C 96.149281,535.30006 96.23071,528.57294 97.25721,521.65328 C 98.418597,513.82434 101.84107,507.79206 102.14905,499.84633 C 102.46781,491.62243 105.49777,479.79779 109.01131,475.89033 C 111.49105,473.13258 115.5954,448.30764 119.66541,443.71318 C 124.28107,438.50276 128.72555,424.6939 127.72257,418.21633 C 126.32117,409.16566 162.90218,424.81631 162.90218,438.01926 C 162.90218,446.33602 165.94708,451.17897 165.94708,459.49048 C 165.94708,467.61998 173.49775,462.74254 179.17158,468.65877 C 184.44623,474.15877 181.5917,483.18258 181.17158,484.02901 C 178.79878,488.80955 172.09354,491.64023 168.99198,494.76462 C 163.7211,500.07431 169.28103,510.68356 170.51443,513.16852 C 173.80711,519.80237 183.2926,517.76949 190.30628,517.76949 C 197.91853,517.76949 205.53078,517.76949 213.14303,517.76949 C 218.92418,517.76949 222.44147,525.76765 225.32264,531.57242 C 228.9712,538.92327 225.03592,548.54468 229.61583,553.15829 C 236.81222,560.40767 247.4771,563.20342 253.29677,566.13468 C 262.0029,570.51978 267.14773,583.12432 273.88255,579.73212 C 276.67002,578.32812 281.17902,562.92409 282.17902,558.9671 C 283.1441,555.14829 297.18875,544.62963 299.10944,543.66222 C 304.87088,540.76029 302.89512,522.6012 307.34108,521.06438 C 312.6472,519.23023 316.00536,515.77113 317.81149,510.43699 C 319.85959,504.38822 318.04251,503.97022 323.90129,495.92888 C 328.73902,489.28895 332.66587,485.5652 337.22272,483.26779 C 345.57575,479.05647 349.94633,480.26888 354.73091,474.04342 C 358.08589,469.67808 359.51678,467.17545 363.10439,459.09865 C 365.90595,452.7915 369.5748,442.64754 369.5748,435.71318 C 369.5748,429.25679 368.62498,420.84955 373.00031,418.10411 C 378.11055,414.89753 382.039,411.24541 388.22481,408.12973 C 395.26213,404.58517 409.32816,417.65668 411.06157,421.14901 C 414.51519,428.1071 418.42415,430.87862 420.19627,438.01926 C 421.77284,444.37197 424.39756,443.70534 427.39832,448.28853 C 431.32744,454.28964 428.12164,466.11935 427.78607,468.05779 C 426.69805,474.34284 421.84879,478.4662 426.69627,484.42803 C 431.69627,490.57744 432.82978,486.16364 437.39832,489.66364 C 444.485,495.09281 448.74656,489.97412 455.21262,493.23096 C 463.55069,497.43069 462.82487,499.03648 462.82487,510.1012 C 462.82487,517.22578 480.67207,514.70218 485.66163,514.70218 C 493.56983,514.70218 501.46226,514.46386 508.49838,516.23584 C 516.32982,518.20811 518.9642,523.51864 522.20043,530.03876 C 525.81227,537.31561 525.6543,543.13198 528.29023,548.44266 C 529.793,551.47032 542.66369,553.04363 548.08209,553.04363 C 553.64151,553.04363 560.94699,560.29027 564.82904,562.24559 C 577.81573,568.78673 560.90046,578.7941 554.17189,582.18314 C 552.14196,583.20559 550.11202,584.22802 548.08209,585.25046 C 536.17702,591.24681 524.18157,591.38509 508.49838,591.38509 C 497.84123,591.38509 487.18408,591.38509 476.52693,591.38509 C 468.59663,591.38509 464.30195,594.08042 456.73507,595.98607 C 450.74094,597.49564 445.3199,603.46184 438.46567,605.18802 C 431.31046,606.98999 423.52982,612.4002 415.62892,614.38996 C 395.10684,619.55825 359.53111,616.36568 339.5064,611.32265 C 323.62547,607.32319 307.24093,602.1207 290.788,602.1207 C 273.70332,602.1207 261.99976,607.69768 246.63694,612.85631 C 229.4823,618.61662 200.70483,614.38996 182.69403,614.38996 C 163.29728,614.38996 149.53768,612.07213 132.45317,605.18802 C 120.8582,600.51588 111.53683,592.63556 100.48172,589.85143 C 95.268367,588.53851 86.458767,581.9407 80.68986,577.58217 C 73.11396,571.85841 94.497729,580.38201 92.108239,568.3466 z "
         style="fill:#00913d;fill-opacity:1;fill-rule:evenodd;stroke:none;stroke-width:1.00367415px;stroke-linecap:butt;stroke-linejoin:miter;stroke-opacity:1" />
      <g
         id="g3981">
        <path
           sodipodi:nodetypes="csssssssscsssssssssc"
           d="M 612.46893,586.52794 C 616.17873,581.42245 613.09869,584.10718 609.21451,581.03739 C 596.28728,570.82058 537.62455,568.25528 522.8297,570.02896 C 493.24,573.57631 458.57586,592.78178 436.04598,590.95853 C 406.23293,588.54588 370.8368,564.3663 339.13692,563.99542 C 305.29089,563.59943 249.8527,597.44211 221.46851,595.40541 C 200.54975,593.90439 153.70478,568.51025 131.67721,567.09922 C 116.82337,566.14772 79.156697,560.15115 74.791375,570.84238 C 72.575967,576.26819 71.620099,574.18961 72.468728,580.20656 C 73.228051,585.5903 75.485715,600.68759 89.207574,631.39386 C 108.11696,670.52901 118.37815,674.84555 120.51786,677.17074 C 124.35239,681.33764 130.3041,682.66989 133.75709,681.84116 C 154.98903,676.74547 234.45713,701.91056 252.62751,700.08731 C 276.67178,697.67466 312.58597,688.71958 338.15197,688.3487 C 365.44885,687.95271 404.41412,702.00354 419.69376,703.01174 C 436.59466,704.12692 486.55608,690.04812 499.08416,688.4076 C 510.3624,686.93074 526.52498,687.31351 541.09457,689.17959 C 545.0352,689.6843 546.92475,690.5128 550.47971,686.17287 C 553.51222,682.47074 566.4778,674.00266 588.43931,639.62699 C 610.43668,605.19522 610.6217,591.74039 612.46893,586.52794 z "
           style="fill:#0093c9;fill-opacity:1;fill-rule:evenodd;stroke:#000000;stroke-width:6.25;stroke-linecap:butt;stroke-linejoin:miter;stroke-miterlimit:4;stroke-opacity:1"
           id="path2219" />
      </g>
      <g
         id="g4864">
        <path
           sodipodi:type="star"
           style="fill:#fbc714;fill-opacity:1;stroke:#000000;stroke-width:6.25;stroke-miterlimit:4;stroke-dasharray:none;stroke-dashoffset:0;stroke-opacity:1"
           id="path2206"
           sodipodi:sides="6"
           sodipodi:cx="114.1127"
           sodipodi:cy="93.530724"
           sodipodi:r1="107.91155"
           sodipodi:r2="53.955772"
           sodipodi:arg1="0.49934672"
           sodipodi:arg2="1.0229455"
           inkscape:flatsided="false"
           inkscape:rounded="0"
           inkscape:randomized="0"
           d="M 208.84778,145.2044 L 142.21577,139.58985 L 116.72952,201.41054 L 88.275865,140.89826 L 21.994448,149.73687 L 60.172796,94.839133 L 19.377627,41.857047 L 86.009632,47.4716 L 111.49588,-14.349096 L 139.94954,46.16319 L 206.23096,37.324581 L 168.05261,92.222314 L 208.84778,145.2044 z "
           transform="matrix(0.660567,0,0,0.660567,96.87412,86.1915)" />
        <path
           sodipodi:type="star"
           style="fill:#fbc714;fill-opacity:1;stroke:#000000;stroke-width:6.25;stroke-miterlimit:4;stroke-dasharray:none;stroke-dashoffset:0;stroke-opacity:1"
           id="path2208"
           sodipodi:sides="6"
           sodipodi:cx="114.1127"
           sodipodi:cy="93.530724"
           sodipodi:r1="107.91155"
           sodipodi:r2="53.955772"
           sodipodi:arg1="0.49934672"
           sodipodi:arg2="1.0229455"
           inkscape:flatsided="false"
           inkscape:rounded="0"
           inkscape:randomized="0"
           d="M 208.84778,145.2044 L 142.21577,139.58985 L 116.72952,201.41054 L 88.275865,140.89826 L 21.994448,149.73687 L 60.172796,94.839133 L 19.377627,41.857047 L 86.009632,47.4716 L 111.49588,-14.349096 L 139.94954,46.16319 L 206.23096,37.324581 L 168.05261,92.222314 L 208.84778,145.2044 z "
           transform="matrix(0.660567,0,0,0.660567,268.1887,87.1149)" />
        <path
           sodipodi:type="star"
           style="fill:#fbc714;fill-opacity:1;stroke:#000000;stroke-width:6.25;stroke-miterlimit:4;stroke-dasharray:none;stroke-dashoffset:0;stroke-opacity:1"
           id="path2210"
           sodipodi:sides="6"
           sodipodi:cx="114.1127"
           sodipodi:cy="93.530724"
           sodipodi:r1="107.91155"
           sodipodi:r2="53.955772"
           sodipodi:arg1="0.49934672"
           sodipodi:arg2="1.0229455"
           inkscape:flatsided="false"
           inkscape:rounded="0"
           inkscape:randomized="0"
           d="M 208.84778,145.2044 L 142.21577,139.58985 L 116.72952,201.41054 L 88.275865,140.89826 L 21.994448,149.73687 L 60.172796,94.839133 L 19.377627,41.857047 L 86.009632,47.4716 L 111.49588,-14.349096 L 139.94954,46.16319 L 206.23096,37.324581 L 168.05261,92.222314 L 208.84778,145.2044 z "
           transform="matrix(0.660567,0,0,0.660567,440.123,86.03841)" />
      </g>
    </g>
    <a
       id="a3977" />
  </g>
</svg>

<svg xmlns="http://www.w3.org/2000/svg" width="690.09" height="780.36" version="1.0"><path d="m18.404 21.19 652.857 1.21-50.526 538.817c-36.78 269.036-527.376 272.17-554.337.055L18.404 21.189z" style="fill:#e10403;fill-opacity:1;fill-rule:evenodd;stroke:#000;stroke-width:12.81259823;stroke-linecap:butt;stroke-linejoin:miter;stroke-miterlimit:4;stroke-dasharray:none;stroke-opacity:1"/><path d="M88.302 553.491c.052-4.494 5.41-17.972 5.41-28.413 0-8.971 5.5-16.442 5.5-25.413 0-7.823 5.995-23.205 8.702-29.187 2.676-5.912 6.848-25.069 10.202-28.775 5.076-5.607 6.725-15.554 6.725-26.141 0-11.438 2.38-13.882 4.567-23.549 1.819-8.037 6.063-13.426 12.18-20.185l12.18-13.456c4.651-5.14 6.736-9.125 10.657-13.457 3.063-3.384 1.522-17.28 1.522-23.549 0-10.328 3.296-15.692 6.09-21.866 1.846-4.08 11.537-8.056 15.224-10.093 5.103-2.819 7.04-10.51 9.135-15.138 4.169-9.212 6.3-13.572 15.225-18.503 9.51-5.253 11.097 10.354 12.18 15.139 2.3 10.168 1.653 14.333 10.656 16.82 6.415 1.772 14.9 1.593 21.315 3.364 7.474 2.065 7.689 10.433 9.134 16.82 1.705 7.536.253 19.619 1.523 25.232 2.25 9.946 5.952 14.835 9.134 21.867 3.17 7.005 3.045 12.951 3.045 21.866 0 9.88-1.375 14.325-3.045 23.55-1.715 9.478 3.617 14.719 6.09 20.184 3.503 7.74 4.25 11.705 6.09 21.867 1.609 8.887 1.219 17.16 3.045 25.23 1.597 7.057 4.98 12.689 7.612 18.504l7.612 16.82c3.438 7.597-2.54 21.31 6.09 11.775 4.247-4.692 6.26-10.84 7.613-16.821 1.709-7.554 8.997-9.94 13.702-15.139 3.688-4.075 13.222-4.78 16.747-6.728 1.963-1.084 7.075-12.863 9.134-15.138 2.43-2.685 5.286-14.95 6.09-18.503 1.979-8.745 1.54-15.215 3.045-21.867.962-4.253 11.691-10.664 13.702-11.774 6.6-3.646 8.66-7.992 10.657-16.82 1.91-8.443-1.522-16.824-1.522-25.232 0-11.035-.128-14.997 4.567-20.185 4.607-5.09 10.568-5.021 16.747-6.728 9.512-2.627 7.612-4.634 7.612-16.82v-25.231c0-10.326-1.297-17.07 4.568-23.55 5.672-6.266 8.398-5.156 10.657-15.138 1.76-7.778 10.709-6.728 18.27-6.728 7.172 0 12.241 12.051 13.701 18.503 1.496 6.61 8.387 12.63 12.18 16.82 6.516 7.2 8.607 11.192 13.702 16.82 4.953 5.473 7.175 8.16 9.135 16.821 1.309 5.785 7.086 12.294 9.134 16.821 3.466 7.659 6.073 13.38 7.613 20.185 2.038 9.007.438 16.107 3.044 21.867 3.288 7.264 6.94 11.03 10.658 15.138 4.806 5.31 9.967 7.648 13.702 11.775 5.072 5.604 5.845 14.06 7.612 21.866 1.855 8.197 1.522 15.662 1.522 25.231 0 9.599 1.68 15.837 3.045 21.867 1.392 6.15 8.024 12.94 10.657 16.82 3.196 4.708 5.377 11.88 7.613 16.821 3.106 6.864 6.658 11.35 9.134 16.821 2.799 6.183 4.624 11.899 7.613 18.503 3.148 6.958 6.772 10.846 10.657 15.138 4.353 4.81 7.44 11.016 9.134 18.503 1.883 8.319-6.957 11.413-10.657 13.456-6.639 3.668-16.578 3.318-22.836 5.047-9.759 2.695-23.442 0-33.494 0H149.2c-8.407 0-16.747.42-24.36-1.682-9.094-2.512-22.666-6.54-27.404-11.775-5.157-5.697-7.54-9.77-9.135-16.82-1.873-8.28-6.035 3.214 0-13.457z" style="fill:#fff;fill-opacity:1;fill-rule:evenodd;stroke:#000;stroke-width:6.56945753;stroke-linecap:butt;stroke-linejoin:miter;stroke-miterlimit:4;stroke-dasharray:none;stroke-opacity:1"/><path d="M92.108 568.347c6.39.597-5.93-2.237-2.675-9.736 2.288-5.273 2.913-10.009 4.205-14.527 2.511-8.784 2.593-15.511 3.62-22.43 1.16-7.83 4.583-13.862 4.891-21.808.319-8.224 3.349-20.048 6.862-23.956 2.48-2.757 6.584-27.582 10.654-32.177 4.616-5.21 9.06-19.02 8.058-25.497-1.402-9.05 35.18 6.6 35.18 19.803 0 8.317 3.044 13.16 3.044 21.471 0 8.13 7.55 3.253 13.225 9.169 5.274 5.5 2.42 14.524 2 15.37-2.373 4.78-9.078 7.611-12.18 10.736-5.27 5.31.289 15.919 1.522 18.404 3.293 6.633 12.779 4.6 19.792 4.6h22.837c5.781 0 9.298 7.999 12.18 13.803 3.648 7.351-.287 16.973 4.293 21.586 7.196 7.25 17.861 10.045 23.68 12.977 8.707 4.385 13.852 16.99 20.587 13.597 2.787-1.404 7.296-16.808 8.296-20.765.965-3.819 15.01-14.337 16.93-15.305 5.762-2.902 3.786-21.06 8.232-22.598 5.306-1.834 8.664-5.293 10.47-10.627 2.049-6.049.232-6.467 6.09-14.508 4.838-6.64 8.765-10.364 13.322-12.661 8.353-4.212 12.723-3 17.508-9.225 3.355-4.365 4.786-6.868 8.373-14.944 2.802-6.308 6.47-16.451 6.47-23.386 0-6.456-.949-14.863 3.426-17.609 5.11-3.206 9.039-6.859 15.225-9.974 7.037-3.545 21.103 9.527 22.837 13.019 3.453 6.958 7.362 9.73 9.134 16.87 1.577 6.353 4.202 5.686 7.202 10.27 3.93 6 .724 17.83.388 19.769-1.088 6.285-5.937 10.408-1.09 16.37 5 6.15 6.134 1.736 10.702 5.236 7.087 5.429 11.349.31 17.815 3.567 8.338 4.2 7.612 5.805 7.612 16.87 0 7.125 17.847 4.601 22.837 4.601 7.908 0 15.8-.238 22.836 1.534 7.832 1.972 10.466 7.283 13.702 13.803 3.612 7.277 3.454 13.093 6.09 18.404 1.503 3.027 14.374 4.6 19.792 4.6 5.56 0 12.865 7.247 16.747 9.203 12.987 6.54-3.929 16.548-10.657 19.937l-6.09 3.067c-11.905 5.997-23.9 6.135-39.584 6.135h-31.971c-7.93 0-12.225 2.695-19.792 4.601-5.994 1.51-11.415 7.476-18.27 9.202-7.155 1.802-14.935 7.212-22.836 9.202-20.522 5.168-56.098 1.976-76.123-3.067-15.88-4-32.265-9.202-48.718-9.202-17.085 0-28.788 5.577-44.151 10.735-17.155 5.76-45.932 1.534-63.943 1.534-19.397 0-33.156-2.318-50.24-9.202-11.596-4.672-20.917-12.552-31.972-15.337-5.214-1.312-14.023-7.91-19.792-12.269-7.576-5.724 13.808 2.8 11.418-9.235z" style="fill:#00913d;fill-opacity:1;fill-rule:evenodd;stroke:none;stroke-width:1.00367415px;stroke-linecap:butt;stroke-linejoin:miter;stroke-opacity:1"/><path d="M612.469 586.528c3.71-5.106.63-2.42-3.254-5.49-12.928-10.217-71.59-12.783-86.385-11.009-29.59 3.547-64.254 22.753-86.784 20.93-29.813-2.413-65.21-26.593-96.91-26.964-33.845-.396-89.283 33.447-117.667 31.41-20.92-1.5-67.764-26.895-89.792-28.306-14.854-.951-52.52-6.948-56.886 3.743-2.215 5.426-3.17 3.348-2.322 9.365.76 5.383 3.017 20.48 16.739 51.187 18.909 39.135 29.17 43.452 31.31 45.777 3.834 4.167 9.786 5.499 13.24 4.67 21.231-5.096 100.7 20.07 118.87 18.246 24.044-2.412 59.958-11.367 85.524-11.738 27.297-.396 66.262 13.655 81.542 14.663 16.9 1.115 66.862-12.964 79.39-14.604 11.278-1.477 27.441-1.094 42.01.772 3.941.504 5.83 1.333 9.386-3.007 3.032-3.702 15.998-12.17 37.96-46.546 21.997-34.432 22.182-47.887 24.029-53.1z" style="fill:#0093c9;fill-opacity:1;fill-rule:evenodd;stroke:#000;stroke-width:6.25;stroke-linecap:butt;stroke-linejoin:miter;stroke-miterlimit:4;stroke-opacity:1"/><path style="fill:#fbc714;fill-opacity:1;stroke:#000;stroke-width:6.25;stroke-miterlimit:4;stroke-dasharray:none;stroke-dashoffset:0;stroke-opacity:1" d="m208.848 145.204-66.632-5.614-25.486 61.82-28.454-60.512-66.282 8.839 38.179-54.898-40.795-52.982 66.632 5.615 25.486-61.821 28.454 60.512 66.281-8.838-38.178 54.897 40.795 52.982z" transform="matrix(.66057 0 0 .66057 96.874 86.192)"/><path style="fill:#fbc714;fill-opacity:1;stroke:#000;stroke-width:6.25;stroke-miterlimit:4;stroke-dasharray:none;stroke-dashoffset:0;stroke-opacity:1" d="m208.848 145.204-66.632-5.614-25.486 61.82-28.454-60.512-66.282 8.839 38.179-54.898-40.795-52.982 66.632 5.615 25.486-61.821 28.454 60.512 66.281-8.838-38.178 54.897 40.795 52.982z" transform="matrix(.66057 0 0 .66057 268.189 87.115)"/><path style="fill:#fbc714;fill-opacity:1;stroke:#000;stroke-width:6.25;stroke-miterlimit:4;stroke-dasharray:none;stroke-dashoffset:0;stroke-opacity:1" d="m208.848 145.204-66.632-5.614-25.486 61.82-28.454-60.512-66.282 8.839 38.179-54.898-40.795-52.982 66.632 5.615 25.486-61.821 28.454 60.512 66.281-8.838-38.178 54.897 40.795 52.982z" transform="matrix(.66057 0 0 .66057 440.123 86.038)"/></svg>
